symbols/web/add_location_alt/materialsymbolsoutlined/add_location_alt_wght200_40px.svg

<svg xmlns="http://www.w3.org/2000/svg" height="40" width="40"><path d="M30.167 13.292h1.416V8.167h5.084V6.75h-5.084V1.667h-1.416V6.75h-5.125v1.417h5.125ZM20 19.042q1 0 1.688-.688.687-.687.687-1.687t-.687-1.688Q21 14.292 20 14.292t-1.688.687q-.687.688-.687 1.688t.687 1.687q.688.688 1.688.688Zm0 17q-6.333-5.625-9.417-10.417Q7.5 20.833 7.5 17q0-5.875 3.771-9.354Q15.042 4.167 20 4.167q.5 0 1 .041.5.042.958.125V5.75q-.458-.083-.937-.125-.479-.042-1.021-.042-4.667 0-7.875 3.188Q8.917 11.958 8.917 17q0 3.167 2.895 7.812 2.896 4.646 8.188 9.271 5.333-4.625 8.208-9.271 2.875-4.645 2.875-7.812v-.312q0-.146-.041-.313H32.5V17q0 3.833-3.083 8.625Q26.333 30.417 20 36.042Zm0-19.459Z"/></svg>

<svg xmlns="http://www.w3.org/2000/svg" height="40" width="40"><path d="M30.167 13.292H31.583V8.167H36.667V6.75H31.583V1.667H30.167V6.75H25.042V8.167H30.167ZM20 19.042Q21 19.042 21.688 18.354Q22.375 17.667 22.375 16.667Q22.375 15.667 21.688 14.979Q21 14.292 20 14.292Q19 14.292 18.312 14.979Q17.625 15.667 17.625 16.667Q17.625 17.667 18.312 18.354Q19 19.042 20 19.042ZM20 36.042Q13.667 30.417 10.583 25.625Q7.5 20.833 7.5 17Q7.5 11.125 11.271 7.646Q15.042 4.167 20 4.167Q20.5 4.167 21 4.208Q21.5 4.25 21.958 4.333V5.75Q21.5 5.667 21.021 5.625Q20.542 5.583 20 5.583Q15.333 5.583 12.125 8.771Q8.917 11.958 8.917 17Q8.917 20.167 11.812 24.812Q14.708 29.458 20 34.083Q25.333 29.458 28.208 24.812Q31.083 20.167 31.083 17Q31.083 16.833 31.083 16.688Q31.083 16.542 31.042 16.375H32.5Q32.5 16.542 32.5 16.688Q32.5 16.833 32.5 17Q32.5 20.833 29.417 25.625Q26.333 30.417 20 36.042ZM20 16.583Q20 16.583 20 16.583Q20 16.583 20 16.583Q20 16.583 20 16.583Q20 16.583 20 16.583Q20 16.583 20 16.583Q20 16.583 20 16.583Q20 16.583 20 16.583Q20 16.583 20 16.583Q20 16.583 20 16.583Q20 16.583 20 16.583Q20 16.583 20 16.583Q20 16.583 20 16.583Q20 16.583 20 16.583Q20 16.583 20 16.583Z"/></svg>
